X:112
T:Jack Manion's Diamond Do
R:march
C: 2004, 2010 L.E. McCullough  
M:C|
L:1/8
K:D
z6FG|:A>B AF ADFA|~f3a edBd|A>B dB AFED|A>G (3FED E2FG|
A>B AF ADFA|~f3a edBd|A>B df edfe|1 d2de d2FG:|2 d2de d2de|]
|:~f3d ~e3c|d>e dB BAFA|F>A df gfed|~e3f e2fg|
adfa gfed|~f3a edBd|A>B df edfe|1 d2de d2de:|2 d2de d2FG|]

